X:1
T:Blue Monk
C:Thelonious Monk
Z:All Rights Reserved
L:1/8
M:4/4
K:Bb
V:1 treble nm=" " snm=" "
V:1
"Bb7" DE=EF- F4 |"Eb7" G^GAB- B4 |"Bb7" FGF=E _EF,^CD- | D _D2C- C4 |"Eb7" G^GAB- B4 | %5
"Edim7" B=Bc_d- d4 |"Bb7" FGF=E _EF,^CD- | D6 (3FFF |"F7" F F,3- F,4 |"Eb7" FGF=E _EF,^CD- | %10
"Bb7" D2 FG F=E_EF, | ^C D3-"F7" D4 |] %12

